X:2378
T:Yn Bollan Bane
T:The White Wort
C:J Cain, Douglas 
C:Traditional
O:Isle of Man
N:See KV379
Z:Kiaull Vannin 378 
M:4/4 
Q:200 
K:D 
d e d  B B e e2|d e d B A B c2|d e d B B e e2|d e d B A B d2|
d e f e d c d d|D D D2 D FA2|F E D2 D F A2 |F E D2 z4|| 

